!!!!SEGMENT: pl-wtm--r-1659_stefani-jozef-siewacz.krn
!!!id: 18xx:2053
!!!COM: Stefani, Józef
!!!OTL: Siewacz
!!!PDT:
!!!OMD:Allo. mod.to
!!!SMS-siglum: PL-Wtm
!!!SMS-shelfmark: R 1659
!!!NIFC-rismID: 1001114907
!!!URL-scan: http://repozytorium.nifc.pl/skany/pl-wtm-nut--r1652--r1653--r1654--r1655--r1656--r1657--r1658--r1659--r1660--r1661
!!!ONB-nifc: UWAGA: No. 16, skan 0011-0012
!!!SMS-variant:
!!!SMS-altvar:
**kern	**kern	**dynam	**kern	**text	**dynam
*group1	*group1	*group1	*	*	*
*part3	*part2	*part2	*part1	*part1	*part1
*staff3	*staff2	*	*staff1	*staff1	*
*	*I"Fortepian	*	*I"Spiew	*	*
*	*I'pf	*	*I'V	*	*
*clefF4	*clefG2	*	*clefG2	*	*
*k[b-]	*k[b-]	*	*k[b-]	*	*
*M2/4	*M2/4	*	*M2/4	*	*
=1	=1	=1	=1	=1	=1
*^	*	*	*	*	*
*all\right	*all\right	*	*all\right	*	*	*
!	!	!	!	!	!	!
!LO:N:vis=2	!	!	!LO:DY:rj	!LO:TX:B:t=No. 16	!	!LO:DY:b:rj
8FF\L	2FF/	(16a/LL 16cc	f	(<16a/LL 16cc	Pe-	f
.	.	16g/JJ) 16b-	.	16g/JJ) 16b-	.	.
8F\	.	16f'/LL 16a	.	16f/ 16a	-łen	.
.	.	16g'/JJ 16b-	.	16g/ 16b-	na-	.
8F\	.	8a\L 8cc	.	8a\ 8cc	-dzie-	.
8F\J	.	8b-\J 8dd	.	8b-\ 8dd	-i	.
*v	*v	*	*	*	*	*
=2	=2	=2	=2	=2	=2
8FF/ 8F	8a\ 8cc	.	8a\ 8cc	ra-	.
4FF/ 4F	4a\ 4ff	.	4a^\ 4ff	-dos-	.
8FF/ 8F	8f/ 8a	.	8f/ 8a	-nej	.
=3	=3	=3	=3	=3	=3
8CC/ 8C	8.g/L 8.b-	.	8.g/ 8.b-	ſie-	.
8C\L 8c	.	.	.	.	.
.	16f#X/Jk 16a	.	16f#X/ 16a	-iesz	.
8C\ 8c	16g/LL 16b-	.	16g/ 16b-	w up-	.
.	16f#/ 16a	.	16f#/ 16a	-raw-	.
8C\J 8c	16g/ 16b-	.	16g/ 16b-	-nym	.
.	16e/JJ 16cc	.	16e/ 16cc	za-	.
=4	=4	=4	=4	=4	=4
!!LO:LB:g=original
16F\LL	4f/ 4a	.	4f/ 4a	-go-	.
16c\	.	.	.	.	.
16A\	.	.	.	.	.
16F\JJ	.	.	.	.	.
4C/	4e/ 4g	.	4e/ 4g	-nie,	.
=5	=5	=5	=5	=5	=5
*^	*	*	*	*	*
!LO:N:vis=2	!	!	!	!	!	!
8FF\L	2FF/	(16a/LL 16cc	.	(16a/LL 16cc	Rzu-	.
.	.	16g/JJ) 16b-	.	16g/JJ) 16b-	.	.
8F\	.	(16f/LL 16a	.	(16f/LL 16a	-casz	.
.	.	16g/JJ) 16b-	.	16g/JJ) 16b-	.	.
8F\	.	8a\L 8cc	.	8a\ 8cc	w źie-	.
8F\J	.	8b-\J 8dd	.	8b-\ 8dd	-mię	.
*v	*v	*	*	*	*	*
=6	=6	=6	=6	=6	=6
8FF/ 8F	16g#X/LL 16bn	.	16g#X/ 16bn	zło-	.
.	16a/JJ 16cc	.	16a/ 16cc	-te	.
4FF/ 4F	4a^<\ 4ff	.	4a\ 4ff	ziar-	.
8FF/ 8F	8f/ 8a	.	8f/ 8a	-no,	.
=7	=7	=7	=7	=7	=7
*	*^	*	*	*	*
8GG\ 8G	8r	4.ryy	.	8d/ 8bn	Pew-	.
8r	8d/ 8f 8g 8bn	.	.	8f/ 8g	-ny	.
8GG\ 8G	8r	.	.	16f/ 16g	że	.
.	.	.	.	16f/ 16g	z pow-	.
8r	16a/LL	8d\ 8f	.	16f/ 16a	-ro-	.
.	16b/JJ	.	.	16d/ 16b	-tem	.
*	*v	*v	*	*	*	*
=8	=8	=8	=8	=8	=8
!!LO:LB:g=original
8CC/ 8C	8r	.	4c/ 4cc	wios-	.
8r	8e/ 8g 8cc	.	.	.	.
8CC/ 8C	8r	.	4e/ 4g	-ny	.
8r	8e/ 8g	.	.	.	.
=9	=9	=9	=9	=9	=9
8GG\ 8G	8r	.	8Bn/ 8dd	Wszys-	.
8r	8f/ 8g 8bn 8dd	.	8d/ 8g	-tkie	.
8GG\ 8G	8r	.	16B/ 16g	uj-	.
.	.	.	16B/ 16g	-rzysz	.
8r	8f/ 8g 8b 8dd	.	16d/ 16bn	w buj-	.
.	.	.	16B/ 16dd	-nym	.
=10	=10	=10	=10	=10	=10
8C\ 8c	8r	.	4c/ 4ee	plo-	.
8r	8e/ 8g 8cc 8ee	.	.	.	.
8C\ 8c	8r	.	4e/ 4cc	-nie,	.
8r	8e/ 8g 8cc	.	.	.	.
=11	=11	=11	=11	=11	=11
8C/	8g/ 8ee	.	8c/ 8ee	Żad-	.
(16D\LL	(16f/LL 16dd	.	(16d/LL 16dd	-ne	.
16E\JJ)	16e/JJ) 16cc	.	16e/JJ) 16cc	.	.
8F\L	8f/L 8a	.	8f/ 8a	ci	.
8D\J	8d/J 8dd	.	8d/ 8dd	nie	.
=12	=12	=12	=12	=12	=12
!!LO:LB:g=original
8GG\ 8G	8e/ 8g 8cc	.	8e/ 8cc	pój-	.
8r	8r	.	(16d/LL 16bn	-dą	.
.	.	.	16e/JJ) 16cc	.	.
4GG\ 4G	4d^/ 4f 4g 4bn	.	(8.g/L 8.ee	mar-	.
.	.	.	16f/Jk) 16dd	.	.
=13	=13	=13	=13	=13	=13
8C\ 8c	8e/ 8g 8cc	.	8e/ 8cc	-no.	.
8r	8r	.	8r	.	.
!	!	!	!	!	!LO:DY:a:rj
8.C\L	8.e/L 8.cc	.	8.e/ 8.cc	Cze-	p
16E\Jk	16g/Jk 16b-X	.	16g/ 16b-X	-musz	.
=14	=14	=14	=14	=14	=14
8.F\L	8.f/L 8.a-X	.	8.f/ 8.a-X	na	.
16F\Jk	16f/Jk 16a-	.	16f/ 16a-	wiecz-	.
8C\L	8e/L 8g	.	8e/ 8g	-noś-	.
8F\J	8f/J 8a-	.	8f/ 8a-	-ci	.
=15	=15	=15	=15	=15	=15
!!LO:PB:g=original
*^	*	*	*	*	*
8C\L	4C/	4e/ 4cc	.	4e/ 4cc	ni-	.
16E\L	.	.	.	.	.	.
16G\JJ	.	.	.	.	.	.
8C\ 8c	4ryy	8e/L 8g	.	8e/ 8g	-wie	.
8C/	.	8e/J 8g	.	16e/ 16g	nie	.
.	.	.	.	16e/ 16g	za-	.
*v	*v	*	*	*	*	*
=16	=16	=16	=16	=16	=16
8.F\	8.f/ 8.a-X	.	8.f/ 8.a-X	-śie-	.
16E-X\	16f/ 16an	.	16e-/ 16f 16an	-waż	.
8D\L	8f/L 8b-	.	8d/ 8f 8b-	tak	.
8D-X\J	8f/J 8bn	.	8d-X/ 8f 8bn	skwap-	.
=17	=17	=17	=17	=17	=17
(4C\	4.e/ 4.g 4.cc	.	4c/ 4e 4cc	-li-	.
8c\)	.	.	8c/ 8e 8cc	-wie??	.
!	!	!LO:DY:rj	!	!	!LO:DY:a:rj
16D-X\LL 16d-X	16e/LL 16b-X	f	16d-X/ 16e 16b-X	Rzuć	f
16C\JJ 16c	16e/JJ 16cc	.	16c/ 16e 16cc	na	.
=18	=18	=18	=18	=18	=18
!!LO:LB:g=original
*	*	*	*^	*	*
8.BB-\L 8.B-	8.e/L 8.dd-X	.	8.B-/ 8.e 8.dd-X	4.ryy	żyz-	.
16BB-\Jk 16B-	16e/Jk 16dd-	.	16B-/ 16e 16dd-	.	-ną	<
!	!	!	!	!	!	!
8D-X\ 8d-X	8e/ 8b-	.	((>8d-X/ 8e 8b-	.	cza-	.
16E\LL 16e	16b-\LL 16gg	.	16b-/) 16gg	16e\)	.	.
16F\JJ 16f	16b-\JJ 16ff	.	16b-/ 16ff	16f\	-su	[[
*	*	*	*v	*v	*	*
=19	=19	=19	=19	=19	=19
!	!	!	!	!	!LO:DY:a
4.G\ 4.g	4b-\ 4ff	.	4g/ 4b- 4ff	ro-	>
.	8b-\ 8ee	.	8g/ 8b- 8ee	-le	]
16.C\LL 16.c	16.cc\LL	.	16.c/ 16.cc	Czy-	.
32C\JJk 32c	32cc\JJk	.	32c/ 32cc	-ste	.
=20	=20	=20	=20	=20	=20
8FF/ 8F	8a\ 8ff	.	8f\ 8ff	źiar-	.
16F\LL	16f/LL	.	(16f/LL	-no	.
16E\JJ	16g/JJ	.	16e/JJ) 16g	.	.
8D\L	8f/L 8a-X	.	8f/ 8a-X	nie	.
8D-X\J	8f/J 8b-X	.	8d-X/ 8f 8b-	ką-	.
=21	=21	=21	=21	=21	=21
!!LO:LB:g=original
4C/	4e/ 4cc	.	4c/ 4e 4cc	-ko-	.
8CC/ 8C	8c/ 8e	.	8c/	-le	.
8r	8a/ 8cc	.	(8a\ 8cc	Za-	.
=22	=22	=22	=22	=22	=22
*^	*	*	*	*	*
!LO:N:vis=2	!	!	!	!	!	!
8FF\L	2FF/	(16a/LL 16cc	.	16a/LL 16cc	.	.
.	.	16g/JJ) 16b-	.	16g/JJ) 16b-	.	.
8F\	.	16f'/LL 16a	.	16f/ 16a	siej	.
.	.	16g'/JJ 16b-	.	16g/ 16b-	ią	.
8F\	.	8a\L 8cc	.	8a\ 8cc	mą-	.
8F\J	.	8b-\J 8dd	.	8b-\ 8dd	-drze	.
*v	*v	*	*	*	*	*
=23	=23	=23	=23	=23	=23
8FF/ 8F	8a\ 8cc	.	8a\ 8cc	czy-	.
4FF/ 4F	4a^<\ 4ff	.	4a^\ 4ff	-na-	.
8FF/ 8F	8f/ 8a	.	8f/ 8a	-mi;	.
=24	=24	=24	=24	=24	=24
8CC/ 8C	8.g/L 8.b-	.	8.g/ 8.b-	Pięk-	.
8C\L 8c	.	.	.	.	.
.	16f#X/Jk 16a	.	16f#X/ 16a	-nych	.
8C\ 8c	16g/LL 16b-	.	16g/ 16b-	czy-	.
.	16f#/ 16a	.	16f#/ 16a	-nów	.
8C\J 8c	16g/ 16b-	.	16g/ 16b-	czys-	.
.	16e/JJ 16cc	.	16e/ 16cc	-te	.
=25	=25	=25	=25	=25	=25
!!LO:PB:g=original
16F\LL	4f/ 4a	.	4f/ 4a	źiar-	.
16c\	.	.	.	.	.
16A\	.	.	.	.	.
16F\JJ	.	.	.	.	.
8C/	8e/ 8g	.	8e/ 8g	-no	.
8r	[8a/ [8cc	.	[>8a\ [8cc	Uj-	.
=26	=26	=26	=26	=26	=26
*^	*	*	*	*	*
!LO:N:vis=2	!	!	!	!	!	!
8FF\L	2FF/	16a/LL] 16cc]	.	16a\] 16cc]	.	.
.	.	16g/ 16b-	.	16g/ 16b-	-rzysz	.
8F\	.	16f/ 16a	.	16f/ 16a	w naj-	.
.	.	16g/JJ 16b-	.	16g/ 16b-	-ob-	.
8F\	.	8a\L 8cc	.	8a\ 8cc	-fit-	.
8F\J	.	8b-\J 8dd	.	8b-\ 8dd	-szym	.
*v	*v	*	*	*	*	*
=27	=27	=27	=27	=27	=27
8FF/ 8F	(16g#X/LL 16bn	.	((16g#X/LL 16bn	plo-	.
.	16a/JJ) 16cc	.	16a/JJ) 16cc	.	.
4FF/ 4F	4a\ 4ff	.	4a\) 4ff	.	.
!	!LO:TX:b:i:t=V&colon;S&colon;	!	!	!	!
8FF/ 8F	8f/ 8a	.	8f/ 8a	-nie	.
=28	=28	=28	=28	=28	=28
!!LO:PB:g=original
8.BB-\L 8.B-	8.f/L 8.b- 8.dd	.	8.b-\ 8.dd	Żad-	.
16BB-\Jk 16B-	16f/Jk 16b- 16dd	.	16b-\ 16dd	-ne	.
*tremolo	*	*	*	*	*
!LO:TX:t=P:problem:4 kropki art.	!	!	!	!	!
16C'\LL 16c	16f/LL 16a 16cc	.	16a\ 16cc	ci	.
16C'\ 16c	16f/ 16a	.	16f/ 16a	nie	.
16C'\ 16c	16f/ 16g	.	16f/ 16g	pój-	.
16C'\JJ 16c	16e/JJ 16cc	.	16e/ 16cc	-dzie	.
*Xtremolo	*	*	*	*	*
=29	=29	=29	=29	=29	=29
8FF/L 8F	8f/L 8a	.	8f/ 8a	mar-	.
8FF/J 8F	8f/J 8a	.	8f/ 8a	-no,	.
8.CC/L 8.C	8.e/L 8.g	.	8.e/ 8.g	Wszys-	.
16CC/Jk 16C	16e/Jk 16cc	.	16e/ 16cc	-tkie	.
=30	=30	=30	=30	=30	=30
8.GG\L 8.G	8.g/L 8.bn	.	8.g/ 8.bn	na	.
16GG\Jk 16G	16f/Jk 16a	.	16f/ 16a	wiecz-	.
8GG\L 8G	8e/L 8g	.	8e/ 8g	-noś-	.
8GG\J 8G	8d/J 8f	.	8d/ 8f	-ci	.
=31	=31	=31	=31	=31	=31
!!LO:LB:g=original
8.C\L 8.G	8.c/L 8.e	.	8c/ 8e	ło-	.
.	.	.	16c/ 16e	-nie,	.
16C\Jk 16c	16e/Jk 16cc	.	16e/ 16cc	Pięk-	.
8BB-\L 8B-	8f/L 8dd	.	8f/ 8dd	-ne-	.
8GG\J 8G	8g/J 8b-	.	8g/ 8b-	-mi	.
=32	=32	=32	=32	=32	=32
8.C\L 8.c	8.f/L 8.a	.	8.f/ 8.a	poz-	.
16C\Jk 16c	16f/Jk 16a	.	16f/ 16a	-nasz	.
8.CC/L 8.C	8.f/L 8.g	.	8.f/L 8.g	kwia-	.
16CC/Jk 16C	16e/Jk 16cc	.	16e/Jk 16cc	.	.
=33	=33	=33	=33	=33	=33
8.FF/L 8.F	8.f/L 8.a	.	8f/ 8a	-ta-	.
.	.	.	16f/ 16a	-mi!	.
16FF/Jk 16F	16f/Jk	.	16f/	Pięk-	.
8BB-\L 8B-	8f/L 8dd	.	8f/ 8dd	-ne-	.
8GG\J 8G	8g/J 8b-	.	8g/ 8b-	-mi	.
=34	=34	=34	=34	=34	=34
!!LO:LB:g=original
8.C\L 8.c	8.f/L 8.a	.	8.f/ 8.a	poz-	.
16C\Jk 16c	16f/Jk 16a	.	16f/ 16a	-nasz	.
8.CC/L 8.C	8.f/L 8.g	.	8.f/L 8.g	kwia-	.
16CC/Jk 16C	16e/Jk 16cc	.	16e/Jk 16cc	.	.
=35	=35	=35	=35	=35	=35
8.FF/L 8.F	8.f/L 8.a	.	8f/ 8a	-ta-	.
.	.	.	16f/ 16a	-mi	.
16FF/Jk 16F	16f/Jk	.	16f/	pię-	.
!LO:N:vis=8.	!	!	!	!	!
8BB-\L 8B-	8f/L 8dd	.	8f/ 8dd	-kne-	.
8GG\J 8G	8g/J 8b-	.	8g/ 8b-	-mi	.
=36	=36	=36	=36	=36	=36
8.C\L 8.c	8.f/L 8.a	.	8.f/ 8.a	poz-	.
16C\Jk 16c	16f/Jk 16a	.	16f/ 16a	-nasz	.
!	!	!	!LO:TX:t=P:problem:obiegnik przekreślony, ♮ powinien nad obiegnikiem, choć prawdopodobnie dotyczy dźwieku bn	!	!
4CC/ 4C	8cc\L	.	8cc\L$sS	kwia-	.
.	16b-\L 16dd	.	16b-\L 16dd	.	.
.	16g\JJ 16ee	.	16g\JJ 16ee	.	.
=37	=37	=37	=37	=37	=37
!!LO:LB:g=original
4.FF/ 4.F	(4a\ 4ff	.	4ff\	-ta-	.
.	8f/	.	8f/	-mi.	.
8r	8cc\)	.	8r	.	.
=38||	=38||	=38||	=38||	=38||	=38||
!!LO:PB:g=original
*^	*	*	*	*	*
!	!LO:N:vis=2	!	!	!	!	!
2C/	8C\L	(16cc\LL	.	2r	.	.
.	.	16b-\	.	.	.	.
.	8G\ 8B- 8c	16a\	.	.	.	.
.	.	16b-\JJ	.	.	.	.
.	8G\ 8B- 8c	8g\L)	.	.	.	.
.	8G\J 8B- 8c	8ee'\J	.	.	.	.
=39	=39	=39	=39	=39	=39	=39
!	!LO:N:vis=2	!	!	!	!	!
2F/	8F\L	(8ff\L	.	2r	.	.
.	.	(16qqgg/LL	.	.	.	.
.	.	16qqff/	.	.	.	.
.	.	16qqee/JJ	.	.	.	.
.	8A\ 8c	16ff\L)	.	.	.	.
.	.	16gg\JJ	.	.	.	.
.	8A\ 8c	8aa\L)	.	.	.	.
.	8A\J 8c	8cc'\J	.	.	.	.
=40	=40	=40	=40	=40	=40	=40
!	!LO:N:vis=2	!	!	!	!	!
2C/	8C\L	(16cc\LL	.	2r	.	.
.	.	16b-\	.	.	.	.
.	8G\ 8B- 8c	16a\	.	.	.	.
.	.	16b-\JJ	.	.	.	.
.	8G\ 8B- 8c	8g\L)	.	.	.	.
.	8G\J 8B- 8c	8ee'\J	.	.	.	.
*v	*v	*	*	*	*	*
=41	=41	=41	=41	=41	=41
!!LO:LB:g=original
*	*^	*	*	*	*
8F\L 8A 8c	8ff'/L	8ff\L	.	2r	.	.
8C\J 8B- 8c	(16aa/L	8ee\J	.	.	.	.
.	16gg/JJ	.	.	.	.	.
8F\ 8A 8c	8ff/)	8ff\	.	.	.	.
8r	8r	8ryy	.	.	.	.
*	*v	*v	*	*	*	*
==	==	==	==	==	==
*-	*-	*-	*-	*-	*-
!!!system-decoration: s1{(s2,s3)}
!!!ENC: Tomasz Grochalski
!!!END: 2021-04-26
!!!RDF**kern: > = above
!!!RDF**kern: < = below
!!!EED: Andrzej Borzym
!!!EST: 2021-05-08
